X:105
T:Le Vant Contraire. Ru2.105
%%VWML:RutherfordVol2-2249-p53-0
F:http://www.vwml.org/record/RutherfordVol2/2249/p53
B:RUTHERFORD Complete Collection of 200 Country Dances Vol.2; 1759.
Z:vmp.Mike Hicken 2015 www.village-music-project.org.uk
M:12/8
Q:3/8=100
K:G
GDG BGB dBd g3|d2e dcB ABc BAG|GDG BGB dBd g3|d2e dcB A3G3 :|
|: gfg efg abg fed|efg dcB ABG FED|gfg efg abg fed|cac BgB ABG FED|
c2a A2c BAG FED|cde ABc BGF G3|c2a A2c BAG FED|c2a A2c BGF G3 :|
W:
W: Hey contrary sides .|  then on your own sides :|  cross
W: (ove)r two Cu: Lead to the top foot it & cast off Clap
W: Hands sides then to your Partners .|.  Lead thro the 3d Cu:
W: cast up & turn Right & Left at top :|.
T:Irish Vauxhall. Ru2.106
L:1/8
B:RUTHERFORD Complete Collection of 200 Country Dances Vol.2; 1759.
Z:vmp.Mike Hicken 2015 www.village-music-project.org.uk
N: The final symbol of dance notation in the original is :|
M:2/4
Q:1/4=100
K:D
|:d2 (f/e/)!wedge!d/!wedge!c/|dA2d|efga|fd2e|fgab|efga|de/f/ gf|{f}e4:|
|: a2b/a/g/f/|ge2f|g2 a/g/f/e/|fd2g|(f/g/a) (e/f/g)|(f/g/a) (e/f/g)|fdAc|d2D2 :|
W:
W: First Man foot it to the 2d Wo: & turn her .|
W: the Wo: the same with the 2d Man :|  cross over
W: one Cu: and turn .|.  Hands round 6 :|.  the Man
W: falls in at the 3d Cu: the Wo: with the top Cu: &
W: foot it all 6 .||  then fall in on your own sides
W: & foot it all 6 :||  Lead to the top cast off & turn .||.
W: Right & Left at top :|
